**kern	**kern	**dynam
*part1	*part1	*part1
*staff2	*staff1	*
*I"Piano	*	*
*clefF4	*clefG2	*
*k[f#c#]	*k[f#c#]	*
=1	=1	=1
(4AAA' 4AA	(4Fn' 4A 4d	.
4GGG#X' 4GG#X	4F' 4Bn 4d	.
=	=	=
4AAA' 4AA	4E' 4A 4d	.
4AAA') 4AA	4E') 4A 4c#X	.
=	=	=
(4DD' 4D	(4F#X' 4A 4d	.
4DD') 4D	4F#') 4A 4d	.
=	=	=
(4GG' 4G	(4B-X' 4d	p
4GG' 4G	4B-' 4d 4e	.
=	=	=
4FFn' 4Fn	4B-X' 4d 4fn	.
4FF') 4F	4B-') 4d 4f	.
=	=	=
(4FFn' 4Fn	(4B-X' 4cn	.
4FF' 4F	4A-X' 4c 4d	.
=	=	=
4EE-X' 4E-X	4A-X' 4cn 4e-X	.
4EE-') 4E-	4A-') 4c 4e-	.
=	=	=
(4EE-X' 4E-X	(4A-X' 4B-X	.
4EE-' 4E-	4G' 4B- 4e-X	.
=	=	=
*-	*-	*-
!!!system-decoration: {(s1,s2)}
